a/assets/inline-svg/app-common/add-code.svg

<svg width="18" height="16" viewBox="0 0 18 16" fill="none" xmlns="http://www.w3.org/2000/svg">
<path fill-rule="evenodd" clip-rule="evenodd" d="M4.99961 16.0001H4.21961C2.74338 16.0001 1.54512 14.8063 1.53961 13.3301V10.6601C1.53977 9.81265 1.08556 9.03019 0.349612 8.61007C0.134637 8.48203 0.00292969 8.25029 0.00292969 8.00007C0.00292969 7.74986 0.134637 7.51811 0.349612 7.39007C1.07026 6.97893 1.52208 6.21957 1.53961 5.39007V2.67007C1.54512 1.19386 2.74338 6.1252e-05 4.21961 7.15288e-05H4.99961C5.18699 -0.00260558 5.36762 0.0699607 5.50106 0.201527C5.63451 0.333094 5.70963 0.512674 5.70961 0.700072C5.70963 0.887469 5.63451 1.06705 5.50106 1.19862C5.36762 1.33018 5.18699 1.40275 4.99961 1.40007H4.21961C3.88106 1.39741 3.55545 1.53003 3.31511 1.76849C3.07478 2.00695 2.9396 2.33151 2.93961 2.67007V5.34007C2.93919 6.33733 2.54366 7.29379 1.83961 8.00007C2.54366 8.70635 2.93919 9.66282 2.93961 10.6601V13.3301C2.9396 13.6686 3.07478 13.9932 3.31511 14.2317C3.55545 14.4701 3.88106 14.6027 4.21961 14.6001H4.99961C5.38621 14.6001 5.69961 14.9135 5.69961 15.3001C5.69961 15.6867 5.38621 16.0001 4.99961 16.0001Z" fill="#12344D"/>
<path fill-rule="evenodd" clip-rule="evenodd" d="M13.7893 16H12.9993C12.6127 16 12.2993 15.6866 12.2993 15.3C12.2993 14.9134 12.6127 14.6 12.9993 14.6H13.7893C14.1279 14.6027 14.4535 14.47 14.6938 14.2316C14.9342 13.9931 15.0693 13.6686 15.0693 13.33V10.66C15.0697 9.66274 15.4653 8.70628 16.1693 8C15.4653 7.29372 15.0697 6.33726 15.0693 5.34V2.67C15.0693 2.33144 14.9342 2.00688 14.6938 1.76842C14.4535 1.52996 14.1279 1.39733 13.7893 1.4H12.9993C12.6127 1.4 12.2993 1.0866 12.2993 0.7C12.2993 0.313401 12.6127 8.14697e-09 12.9993 0H13.7893C15.2655 -1.02767e-05 16.4638 1.19378 16.4693 2.67V5.34C16.4692 6.18742 16.9234 6.96988 17.6593 7.39C17.8693 7.52168 17.9968 7.75213 17.9968 8C17.9968 8.24787 17.8693 8.47832 17.6593 8.61C16.9234 9.03012 16.4692 9.81258 16.4693 10.66V13.33C16.4638 14.8062 15.2655 16 13.7893 16Z" fill="#12344D"/>
<path fill-rule="evenodd" clip-rule="evenodd" d="M11.7596 7.30004H9.69955V5.24004C9.69955 4.85344 9.38615 4.54004 8.99955 4.54004C8.61295 4.54004 8.29955 4.85344 8.29955 5.24004V7.30004H6.23955C5.98946 7.30004 5.75838 7.43346 5.63333 7.65004C5.50829 7.86662 5.50829 8.13346 5.63333 8.35004C5.75838 8.56662 5.98946 8.70004 6.23955 8.70004H8.29955V10.76C8.29955 11.1466 8.61295 11.46 8.99955 11.46C9.38615 11.46 9.69955 11.1466 9.69955 10.76V8.70004H11.7596C12.1462 8.70004 12.4596 8.38664 12.4596 8.00004C12.4596 7.61344 12.1462 7.30004 11.7596 7.30004Z" fill="#12344D"/>
</svg>

<svg xmlns="http://www.w3.org/2000/svg" width="18" height="16" fill="none"><g fill="#12344D" fill-rule="evenodd" clip-path="url(#add-code __a)" clip-rule="evenodd"><path d="M5 16h-.78a2.68 2.68 0 01-2.68-2.67v-2.67A2.36 2.36 0 00.35 8.61a.71.71 0 010-1.22 2.36 2.36 0 001.19-2V2.67A2.68 2.68 0 014.22 0H5a.7.7 0 110 1.4h-.78a1.27 1.27 0 00-1.28 1.27v2.67A3.77 3.77 0 011.84 8a3.77 3.77 0 011.1 2.66v2.67a1.27 1.27 0 001.28 1.27H5A.7.7 0 115 16zm8.79 0H13a.7.7 0 110-1.4h.79a1.27 1.27 0 001.28-1.27v-2.67A3.77 3.77 0 0116.17 8a3.77 3.77 0 01-1.1-2.66V2.67a1.27 1.27 0 00-1.28-1.27H13A.7.7 0 1113 0h.79a2.68 2.68 0 012.68 2.67v2.67c0 .847.453 1.63 1.19 2.05a.72.72 0 010 1.22 2.36 2.36 0 00-1.19 2.05v2.67A2.68 2.68 0 0113.79 16z"/><path d="M11.76 7.3H9.7V5.24a.7.7 0 10-1.4 0V7.3H6.24a.7.7 0 000 1.4H8.3v2.06a.7.7 0 101.4 0V8.7h2.06a.7.7 0 100-1.4z"/></g><defs><clipPath id="add-code __a"><path fill="#fff" d="M0 0h18v16H0z"/></clipPath></defs></svg>
